lib/brands/icons/google-meet.svg

<svg xmlns="http://www.w3.org/2000/svg" fill="none" aria-hidden="true" viewBox="0 0 48 48"><g id="google-meet-Icon"><g id="Group"><path id="Vector" fill="#00832D" d="M26.3657 23.8115L29.8752 27.8229L34.5943 30.8387L35.4172 23.8382L34.5943 16.992L29.7847 19.6416L26.3657 23.8115Z"/><path id="Vector_2" fill="#0066DA" d="M6 30.1886V36.1543C6 37.5182 7.10469 38.6229 8.46858 38.6229H14.4343L15.6686 34.1137L14.4343 30.1886L10.3406 28.9543L6 30.1886Z"/><path id="Vector_3" fill="#E94235" d="M14.4343 9L6 17.4343L10.3406 18.6686L14.4343 17.4343L15.648 13.5607L14.4343 9Z"/><path id="Vector_4" fill="#2684FC" d="M14.4343 17.4343H6V30.1886H14.4343V17.4343Z"/><path id="Vector_5" fill="#00AC47" d="M39.9818 12.5712L34.5941 16.992V30.8387L40.0044 35.276C40.815 35.9096 41.9999 35.3315 41.9999 34.3029V13.5258C41.9999 12.4828 40.7882 11.9109 39.9818 12.5712ZM26.3655 23.8115V30.1886H14.4341V38.623H32.1256C33.4894 38.623 34.5941 37.5183 34.5941 36.1544V30.8387L26.3655 23.8115Z"/><path id="Vector_6" fill="#FFBA00" d="M32.1256 9H14.4341V17.4343H26.3655V23.8115L34.5941 16.992V11.4686C34.5941 10.1047 33.4894 9 32.1256 9Z"/></g></g></svg>

<svg xmlns="http://www.w3.org/2000/svg" fill="none" aria-hidden="true" viewBox="0 0 48 48"><path fill="#00832D" d="m26.366 23.811 3.51 4.012 4.718 3.016.823-7-.823-6.847-4.81 2.65-3.418 4.17Z"/><path fill="#0066DA" d="M6 30.189v5.965a2.468 2.468 0 0 0 2.469 2.469h5.965l1.235-4.51-1.235-3.924-4.093-1.235L6 30.19Z"/><path fill="#E94235" d="M14.434 9 6 17.434l4.34 1.235 4.094-1.235 1.214-3.873L14.434 9Z"/><path fill="#2684FC" d="M14.434 17.434H6V30.19h8.434V17.434Z"/><path fill="#00AC47" d="m39.982 12.571-5.388 4.421v13.847l5.41 4.437c.811.634 1.996.055 1.996-.973V13.526c0-1.043-1.212-1.615-2.018-.955Zm-13.616 11.24v6.378H14.434v8.434h17.692a2.468 2.468 0 0 0 2.468-2.469V30.84l-8.229-7.027Z"/><path fill="#FFBA00" d="M32.126 9H14.434v8.434h11.932v6.377l8.228-6.819v-5.523A2.468 2.468 0 0 0 32.126 9Z"/></svg>
